resources/icons/20px/horizontal-bar-chart.svg

<svg xmlns="http://www.w3.org/2000/svg" viewBox="0 0 20 20">
  <path d="M1 1c-.55 0-1 .45-1 1v16c0 .55.45 1 1 1s1-.45 1-1V2c0-.55-.45-1-1-1m3 5h11c.55 0 1-.45 1-1V3c0-.55-.45-1-1-1H4c-.55 0-1 .45-1 1v2c0 .55.45 1 1 1m8 8H4c-.55 0-1 .45-1 1v2c0 .55.45 1 1 1h8c.55 0 1-.45 1-1v-2c0-.55-.45-1-1-1m7-6H4c-.55 0-1 .45-1 1v2c0 .55.45 1 1 1h15c.55 0 1-.45 1-1V9c0-.55-.45-1-1-1"/>
</svg>

<?xml version="1.0" encoding="utf-8"?>
<!-- Generator: Adobe Illustrator 18.0.0, SVG Export Plug-In . SVG Version: 6.00 Build 0)  -->
<svg version="1.1" id="Layer_1" xmlns="http://www.w3.org/2000/svg" xmlns:xlink="http://www.w3.org/1999/xlink" x="0px" y="0px"
	 viewBox="0 0 20 20" enable-background="new 0 0 20 20" xml:space="preserve">
<g id="horizontal_bar_chart">
	<g>
		<path fill-rule="evenodd" clip-rule="evenodd" d="M1,1C0.45,1,0,1.45,0,2v16c0,0.55,0.45,1,1,1s1-0.45,1-1V2C2,1.45,1.55,1,1,1z
			 M4,6h11c0.55,0,1-0.45,1-1V3c0-0.55-0.45-1-1-1H4C3.45,2,3,2.45,3,3v2C3,5.55,3.45,6,4,6z M12,14H4c-0.55,0-1,0.45-1,1v2
			c0,0.55,0.45,1,1,1h8c0.55,0,1-0.45,1-1v-2C13,14.45,12.55,14,12,14z M19,8H4C3.45,8,3,8.45,3,9v2c0,0.55,0.45,1,1,1h15
			c0.55,0,1-0.45,1-1V9C20,8.45,19.55,8,19,8z"/>
	</g>
</g>
</svg>
